X: 1269
T: Polska efter Gåsvikarn
O: Uppland
R: Bondpolska
B: Spela nyckelharpa 1, nr 3
S: efter [[!Gåsvikarn]] (Anders Andersson, Gåsvik, Väddö)
Z: Nils L
M: 3/4
L: 1/8
K: C
e>d c2 E2 | F>G A2 A2 | d>c (Bd) G2 | ed (ce) G2 |
e>d c2 E2 | F>G A2 A2 | (d>c) (Bd) Gc | (e>d) c4 ::
(EG) (EG) E>G | (FA) FA F2 | (d>c) B<d G2  | (e>d) c<e G2 |
(EG) (EG) E>G | (FA) FA F2 | (dc) (BA) G>c | (e>d) c2 z2    :|
(:musicend:)

(:music:)
